public/library/zyberswap-icon-dark.svg

<svg width="72" height="72" viewBox="0 0 72 72" fill="none" xmlns="http://www.w3.org/2000/svg">
<g clip-path="url(#clip0_118_2050)">
<circle cx="36" cy="36" r="36" fill="black"/>
<path d="M19.0762 37.7223L45.8762 7.32227L33.4762 32.9223H54.2762L30.6762 60.9223L40.6762 37.7223H19.0762Z" fill="#2AE0CA"/>
<path d="M34.6758 32.122L44.6758 12.522L37.8758 32.122H34.6758Z" fill="#3CAA72"/>
<path d="M39.2545 38.522H23.875L35.875 40.522L39.2545 38.522Z" fill="#3CAA72"/>
<path d="M31.4766 57.3223L39.4766 39.3223L36.2766 41.3223L31.4766 57.3223Z" fill="#35DD99"/>
</g>
<defs>
<clipPath id="clip0_118_2050">
<rect width="72" height="72" fill="white"/>
</clipPath>
</defs>
</svg>

<svg xmlns="http://www.w3.org/2000/svg" width="72" height="72" fill="none" viewBox="0 0 72 72"><g clip-path="url(#a)"><circle cx="36" cy="36" r="36" fill="#000"/><path fill="#2ae0ca" d="m19.076 37.722 26.8-30.4-12.4 25.6h20.8l-23.6 28 10-23.2z"/><path fill="#3caa72" d="m34.676 32.122 10-19.6-6.8 19.6zM39.255 38.522h-15.38l12 2z"/><path fill="#35dd99" d="m31.477 57.322 8-18-3.2 2z"/></g><defs><clipPath id="a"><path fill="#fff" d="M0 0h72v72H0z"/></clipPath></defs></svg>
